X:1
T:Title
%%score { ( 1 4 ) | ( 2 3 5 ) }
L:1/8
M:12/8
K:Ab
V:1 treble nm="Grand Piano"
V:4 treble 
V:2 bass 
V:3 bass 
V:5 bass 
V:1
 z6 z3[Q:1/4=107] [CE][CA][DB] | [Ec]3 [CA]3 [Ec][DB][CA] BAF | %2
[M:9/8][K:bass] [A,CE]3 .[G,DE]3 [E,CE]3 |[M:3/8][K:treble] [CE][CEA][EAc] | %4
[M:6/4] [GB]3 [GB]3 [Ge][GB][Ac][Bd][Ac][GB] |[M:9/8] z3 c3 c3 |[M:3/8] [CE][CEA][B,EB] | %7
[M:6/4] [Ec]3 [CA]3 [Ec][DB][CA]BAF |[M:9/8] [CE]3[K:bass] .[G,DE]3 [E,CE]3 | %9
[M:3/8][K:treble] [CE][CA][EG] |[M:6/4] [DF]3 [Fd]3 cBABA[B,DG] |[M:9/8] [A,CA]8- [A,CA] | %12
[M:3/8] z3 |[M:6/4] [CEA][EA][EA][EA][EA][EA] .[EA]3 .[CEA]3 | %14
 [CEA][EA][EA] [EA]2 [CEA] .[CEA]3 .[CEA]3 |[M:9/8] [DEB][EB][EB] [EB][EB][EB] .[DEB]3 | %16
[M:3/8] [DEB]2 z |[M:6/4] [CEA]AA A2 A A3[K:bass] E,A,B, | AAAAAA .A3 .[CEA]3 | %19
[M:9/8] [A,DA][DA][DA] [DA]2 [DFA] .[DFA]3 |[M:3/8] [FA]3 | %21
[M:6/4] [DEG][EG][EG][EG][EG][EG] .[EG]3 .[DEG]3 |[M:9/8] [CEA]AA AAA A3 |] %23
V:2
 z6 z3 [A,,A,][A,,A,][A,,A,] | [A,,A,]3 [A,,A,]3 [A,,A,][A,,A,][A,,A,] [D,F,D][D,F,D][D,A,D] | %2
[M:9/8] A,,3 z2 F, A,,3 |[M:3/8] A,A,A, |[M:6/4] [E,E]3 [E,E]3 [E,E][E,E][E,E] [E,E]2 [E,E] | %5
[M:9/8][K:treble] A6 A3 |[M:3/8][K:bass] A,,A,,A,, | %7
[M:6/4] [A,,A,]3 [A,,A,]3 [A,,A,][A,,A,][A,,A,][D,F,D][D,F,D][D,D] |[M:9/8] [A,,A,]3 z2 F, A,,3 | %9
[M:3/8] [A,,A,][A,,A,][A,,A,] |[M:6/4] z6 z2 z .D3 |[M:9/8] A,,8- A,, |[M:3/8] E,F,G, | %13
[M:6/4] z[K:treble] CCCCC CC[K:bass]B,A,C,F, | z CC C2 C, A,,3 A,3 | %15
[M:9/8] z[K:treble] DD DDD[K:bass] E,B,,C, |[M:3/8] D,E,F, | %17
[M:6/4] z[K:treble] [CE][CE] [CE]2 [CE] .[CE]6 | z6 .E6[K:bass] |[M:9/8] z A,A, A,2 D, A,3 | %20
[M:3/8] F,2 D, |[M:6/4] z[K:treble] DDDDD D[K:bass]F,E,D,C,B,, | %22
[M:9/8] z [CE][CE] [DF][DF][DF] [CE]3 |] %23
V:3
 x12 | x12 |[M:9/8] z3 A,,3 z3 |[M:3/8] x3 |[M:6/4] x12 |[M:9/8][K:treble] [A,E]8- [A,E] | %6
[M:3/8][K:bass] x3 |[M:6/4] x12 |[M:9/8] z3 A,,3 z3 |[M:3/8] x3 | %10
[M:6/4] [D,A,]3 [D,A,]3 [E,A,E][E,B,E][E,CE][E,E]-[E,CE]E, |[M:9/8] x9 |[M:3/8] x3 | %13
[M:6/4] .A,12[K:treble][K:bass] | E,6 z6 |[M:9/8] G,6[K:treble][K:bass] z3 |[M:3/8] x3 | %17
[M:6/4] E,12[K:treble] | .C12[K:bass] |[M:9/8] F,6 z3 |[M:3/8] x3 | %21
[M:6/4] .E,12[K:treble][K:bass] |[M:9/8] A,,8- A,, |] %23
V:4
 x12 | x12 |[M:9/8][K:bass] x9 |[M:3/8][K:treble] x3 |[M:6/4] x12 |[M:9/8] c3 z .e2 z CF | %6
[M:3/8] x3 |[M:6/4] x12 |[M:9/8] x3[K:bass] x6 |[M:3/8][K:treble] x3 |[M:6/4] x12 |[M:9/8] x9 | %12
[M:3/8] x3 |[M:6/4] x12 | x12 |[M:9/8] x9 |[M:3/8] x3 |[M:6/4] x9[K:bass] x3 | x12 |[M:9/8] x9 | %20
[M:3/8] D2 z |[M:6/4] x12 |[M:9/8] x9 |] %23
V:5
 x12 | x12 |[M:9/8] x9 |[M:3/8] x3 |[M:6/4] x12 |[M:9/8][K:treble] x9 |[M:3/8][K:bass] x3 | %7
[M:6/4] x12 |[M:9/8] x9 |[M:3/8] x3 |[M:6/4] x12 |[M:9/8] x9 |[M:3/8] x3 | %13
[M:6/4] x[K:treble] x7[K:bass] x4 | x12 |[M:9/8] x[K:treble] x5[K:bass] x3 |[M:3/8] x3 | %17
[M:6/4] x[K:treble] x11 | EEEEEE z[K:bass] B,A,E,C,E, |[M:9/8] x9 |[M:3/8] x3 | %21
[M:6/4] x[K:treble] x6[K:bass] x5 |[M:9/8] x9 |] %23

